X:1
T:Movement to a Piano Sonata in B-flat
T:Movement to a Piano Sonata in B-flat
T:K. 15aa
T:W.A. Mozart
C:W.A. Mozart
%%score { ( 1 3 ) | 2 }
L:1/8
Q:1/4=115
M:2/4
K:Bb
V:1 treble nm="Piano" snm="Pno."
V:3 treble 
V:2 bass 
V:1
"^Allegro" [DB]2 d/B/e/c/ | f>f f/e/d/c/ | [DB]2 d/B/e/c/ | f>f f/e/d/c/ | BB TB3/2A/4B/4 | %5
 c/A/c/A/ e/c/B/A/ | [Bd][Bd] Td3/2c/4d/4 | e/c/e/c/ g/e/d/c/ | d/B/d/B/ d/_A/d/A/ | %9
 e/G/B/e/ e/=A/e/A/ | dBd=e | fF z2 | z f/c/ z a/f/ | z b/g/ z g/=e/ | z a/f/ z _e/c/ | %15
 z d/B/ z =e/B/ | [Af]Tfga | bdg=e | [Af]Tfga | bdg=e | [Af]2 z Tf | =egbg | [Af]2 z Tf | =egbg | %24
 [Af]2 [Af]2 | !fermata![Af]2 z2 :: F2 A/F/B/G/ | c>d c/B/A/G/ | F2 A/F/B/G/ | c>d c/B/A/G/ | %30
 TF3/2=E/4F/4 A/F/A/F/ | [FB][Bf] [B_e][Ac] | [Bd]bbb | bebb | bfbb | g>b e>g | cegB | %37
 [Af][DB][Ec][Fd] | [Ge][Fd][Ge][Ec] | [Fd][DB][Ec][Fd] | [Ge][Fd][Ge][Ec] | [DB]2 z TB | Acec | %43
 [Ec][DB] z B | C z z2 |[Q:1/4=115] D2[Q:1/4=103]"^.8" D2[Q:1/4=109]"^.4"[Q:1/4=98]"^.1" | %46
[Q:1/4=92]"^.5" !fermata!D2[Q:1/4=81]"^.3" z2 :| %47
V:2
 [B,,B,]2 z2 | B,2 F,F,, | B,,2 z2 | B,,2 F,,F, | B,4 | B,4 | B,4 | B,4 | B,2 B,2 | B,,2 B,,2 | %10
 B,C,D,=E, | F,F, z2 | F,2 F,2 | F,2 F,2 | F,2 F,2 | F,2 F,2 | F,2 z2 | F,4 | F,2 z2 | F,4 | %20
!mp! C,/C/C,/C/ C,/C/C,/C/ | C,/C/C,/C/ C,/C/C,/C/ | C,/C/C,/C/ C,/C/C,/C/ | %23
 C,/C/C,/C/ C,/C/C,/C/ |!mf! F,2 F,2 | F,2 z2 :: [F,,F,]2 z2 | F,A,B,C | [F,,F,]2 z2 | F,A,B,C | %30
 F,4 | D,DCF, | B,2 _A,2 | G,2 E,2 | D,2 B,,2 | E,2 E,2 | E,2 =E,2 | F,2 B,,2 | B,,4 | B,,2 z2 | %40
 B,,4 |!mp! F,,/F,/F,,/F,/ F,,/F,/F,,/F,/ | F,,/F,/F,,/F,/ F,,/F,/F,,/F,/ | %43
 F,,/F,/F,,/F,/ F,,/F,/F,,/F,/ | F,,/F,/F,,/F,/ F,,/F,/F,,/F,/ |!mf! B,,B,F,D, | B,,2 z2 :| %47
V:3
 x4 | x4 | x4 | x4 | x4 | x4 | x4 | x4 | x4 | x4 | x4 | x4 | x4 | x4 | x4 | x4 | x4 | x4 | x4 | %19
 x4 | x4 | x4 | x4 | x4 | x4 | x4 :: x4 | x4 | x4 | x4 | x4 | x4 | x4 | x4 | x4 | x4 | x4 | x4 | %38
 x4 | x4 | x4 | x4 | x4 | x4 | Acec | B2 B2 | B2 x2 :| %47

